X:4299
T:Dorset Four Hand Reel
M:2/4
L:1/8
Q:1/4=70
C:Trad
S:Community |Dances Manual
K:G
B/2A/2|:GB d c/2B/2 |ce ce|GB d3/2c/2|BA A B/2A/2 | 
GB d c/2B/2|ce ce|GB d3/2c/2 |1 BA G B/2A/2 :|2 BA G2
|: gg g/2f/2 e|d d/2e/2 d/2c/2 B|A2 B/2c/2 d|ed d e/2f/2 |
gg g/2f/2 e|d d/2e/2 d/2c/2 B|A2 B/2c/2 F|AG G2 :|
